Newaita-dark/actions/32/edit-table-insert-row-above.svg

<?xml version="1.0" encoding="UTF-8"?>
<svg xmlns="http://www.w3.org/2000/svg" xmlns:xlink="http://www.w3.org/1999/xlink" width="32pt" height="32pt" viewBox="0 0 32 32" version="1.1">
<g id="surface1">
<path style=" stroke:none;fill-rule:nonzero;fill:rgb(74.117649%,74.117649%,74.117649%);fill-opacity:1;" d="M 1.324219 28.695312 C 1.324219 29.429688 1.914062 30.019531 2.644531 30.019531 L 28.445312 30.019531 C 29.179688 30.019531 29.769531 29.429688 29.769531 28.695312 L 29.769531 3.558594 C 29.769531 3.558594 29.769531 3.554688 29.769531 3.554688 L 29.769531 12.820312 L 27.785156 12.820312 L 27.785156 19.433594 L 21.167969 19.433594 L 21.167969 12.820312 L 19.183594 12.820312 L 19.183594 19.433594 L 12.570312 19.433594 L 12.570312 12.820312 L 10.585938 12.820312 L 10.585938 19.433594 L 3.308594 19.433594 L 3.308594 2.234375 L 2.644531 2.234375 C 1.914062 2.234375 1.324219 2.824219 1.324219 3.558594 Z M 3.308594 27.371094 L 3.308594 21.417969 L 10.585938 21.417969 L 10.585938 28.035156 L 3.96875 28.035156 C 3.601562 28.035156 3.308594 27.738281 3.308594 27.371094 Z M 12.570312 28.035156 L 12.570312 21.417969 L 19.183594 21.417969 L 19.183594 28.035156 Z M 21.167969 28.035156 L 21.167969 21.417969 L 27.785156 21.417969 L 27.785156 27.371094 C 27.785156 27.738281 27.488281 28.035156 27.121094 28.035156 Z M 21.167969 28.035156 "/>
<path style=" stroke:none;fill-rule:nonzero;fill:rgb(100%,43.921569%,26.274511%);fill-opacity:1;" d="M 3.308594 12.820312 L 15.875 12.820312 L 15.875 10.835938 L 12.730469 10.835938 L 6.113281 4.21875 L 10.503906 4.21875 L 15.875 9.589844 L 15.875 6.785156 L 13.3125 4.21875 L 15.875 4.21875 L 15.875 2.234375 L 3.308594 2.234375 L 3.308594 4.21875 L 9.921875 10.835938 L 3.308594 10.835938 Z M 3.308594 12.820312 "/>
<path style=" stroke:none;fill-rule:nonzero;fill:rgb(40.000001%,73.333335%,41.568628%);fill-opacity:1;" d="M 19.183594 7.527344 C 19.183594 8.078125 19.625 8.519531 20.175781 8.519531 L 23.484375 8.519531 L 23.484375 11.828125 C 23.484375 12.375 23.925781 12.820312 24.476562 12.820312 C 25.027344 12.820312 25.46875 12.375 25.46875 11.828125 L 25.46875 8.519531 L 28.777344 8.519531 C 29.324219 8.519531 29.769531 8.078125 29.769531 7.527344 C 29.769531 6.976562 29.324219 6.535156 28.777344 6.535156 L 25.46875 6.535156 L 25.46875 3.226562 C 25.46875 2.675781 25.027344 2.234375 24.476562 2.234375 C 23.925781 2.234375 23.484375 2.675781 23.484375 3.226562 L 23.484375 6.535156 L 20.175781 6.535156 C 19.625 6.535156 19.183594 6.976562 19.183594 7.527344 Z M 19.183594 7.527344 "/>
</g>
</svg>

<svg xmlns="http://www.w3.org/2000/svg" width="32pt" height="32pt" viewBox="0 0 32 32"><path d="M1.324 28.695c0 .735.59 1.325 1.32 1.325h25.801a1.32 1.32 0 0 0 1.325-1.325V3.56v-.004 9.265h-1.985v6.614h-6.617V12.82h-1.984v6.614H12.57V12.82h-1.984v6.614H3.309v-17.2h-.664c-.73 0-1.32.59-1.32 1.325zm1.985-1.324v-5.953h7.277v6.617H3.969a.66.66 0 0 1-.66-.664zm9.261.664v-6.617h6.614v6.617zm8.598 0v-6.617h6.617v5.953a.664.664 0 0 1-.664.664zm0 0" fill="#bdbdbd"/><path d="M3.309 12.82h12.566v-1.984H12.73L6.113 4.219h4.39l5.372 5.37V6.786L13.312 4.22h2.563V2.234H3.309V4.22l6.613 6.617H3.309zm0 0" fill="#ff7043"/><path d="M19.184 7.527c0 .551.441.993.992.993h3.308v3.308a.991.991 0 1 0 1.985 0V8.52h3.308a.991.991 0 1 0 0-1.985H25.47V3.227a.989.989 0 0 0-.992-.993.989.989 0 0 0-.993.993v3.308h-3.308a.989.989 0 0 0-.992.992zm0 0" fill="#66bb6a"/></svg>
